X: 12843
T: Femspring
R: slip jig
M: 9/8
K: Aminor
M:5/8
|:A/G/A/c/ B - B/G/E|1 A/G/A/B/ d - d/c/B:|2 A/G/A/c/ d - d/c/A/B/||
|:d/e/e/d/ (3B/c/d/ d/c/A/B/|c-c/B/ G/B/ A/^G/E|d/e/e/d/ B/B/ c/B/A/B/|c-c/d/ B/G/ AA:|

